X:1
T:Dal profondo del core
T:Dal profondo del core
T:Giovanni Ghizzolo
C:Giovanni Ghizzolo
%%score [ 1 2 3 ]
L:1/8
Q:1/4=120
M:4/4
K:C
V:1 treble nm="Soprano" snm="S"
V:2 treble nm="MusicXML Part"
V:3 bass nm="BC" snm="BC"
V:1
"^Source:  Madrigali et Arie---Libro secondo---Venetia---A.Raverij. 1609""^Editor: André Vierendeels (05/10/08)\nContinuo: André Vierendeels" z2 DD D2 DC | %1
w: Dal pro- fon- do del|
 EE"^MADRIGALE" G4 GG | GA B4 d2- | d2 cG A2 A2 | z2 cB e4- | e2 AB B4 | A8 | z2 BA d4- | %8
w: co- re spi- rae sos-|pi- raogn'hor _ l'a-|* ni- ma mi- a|fa- ri dol-|* ci d'a- mo-|re,|fa- ri dol-|
 d2 GA A4 | G8 |: z4 d4- | d2 BB _B4- | B2 B2 A4 | G8 | z4 A4- | A2 ^FF =F4- | F2 E2 E4 | %17
w: * ce d'a- mo-|re.|O|_ che pie- ta|_ cru- de-|le,|o|_ che pie- ta|_ cru- de-|
 D4 z2 dA | d2 cc B2 e2- | e2 dd d4 | c8 | z G A4 D2 | E3 E E2 E2 | E2 F2 G4 | G2 Bc d2 cB | %25
w: le sos- pi-|ran- doaf- fa- nar al-|* ma fe- de-|le|sos- pi- ra|pur al- men fiam-|mi con- ces-|so far gli sco- gli d'a-|
 A4 c>d c>d | e4 d>e c>d | B>c A>B G4- | G2 A2 A4 | G8 :| %30
w: mo- per _ _ _|der _ _ _ _|_ _ _ _ _|* me ste-|so.|
V:2
 [DGB]8 | [EGc]8 | [DGB]8 | [^FA]8 | [EAc]8 | [CEA]2 [EB]2 [EA]2 ^G2 | [EA^c]8 | [DG]8 | %8
 G2 [Ad]4 [^Fd]2 | [DGB]8 |: [DGB]8 | [^GB]4 [DG_B]4 | [EG]4 [D^FA]4 | [DGB]8 | [^FAd]8 | %15
 [DA]2 D2 [FAd]4 | [DF]2 E2 D2 ^C2 | [DFA]8 | [D-GB-]8 | [DGB]8 | [EGc]8 | [EG]2 [EA]4 [EG]2 | %22
 [^CA]8- | [CA]2 [DFA]2 [E-Gc-]4 | [EGc]2 [DGB]4 [EGc]2 | [FAc]4 [EAc]4 | [EGc]4 G2 A2 | %27
 [GB]2 [DG]4 [EG]2 | G2 [^FA]2 [DFA]2 Bc | [DB]8 :| %30
V:3
 G,,8 | C,8 | G,,8 | D,8 | A,,8 |"^4" E,4"^3" E,4"^#" | A,,8 | G,,8 | %8
"^4                     3" D,4 D,4"^#" | G,,8 |: G,8 |"^#" E,4"^b" G,4 | %12
"^5             3      #" ^C,4"^#" D,4 | G,,8 | D,8 |"^5" B,,4"^#" D,4 |"^5""^3" ^G,,4 A,,4"^#" | %17
 D,8 | G,,8- | G,,8 | C,4 C,,4 | C,4 _B,,4 | A,,3 A,, A,,2 A,,2 | A,,2 D,2 C,4 | %24
 C,2 G,,2 B,,2 C,2 | D,2 C,B,, A,,2 B,,2"^original keys: Ut 1st, Fa 4rth" | C,2 D,2 E,2 F,2 | %27
 G,2 G,,2"^6                    4           3" B,,2 C,2 | [D,A,D]4 [D,A,]4"^#" | [G,,G,]8 :| %30

